X:115
T:Lurgan Hornpipe, The 
S:Bogue MS
F:file ID cre.4/115lurgan
B:CRE4.221 (Cornphiopa na Lorgan)
N:A relative of 'Bill Black's Hornpipe' in O'Neill's 1850!
Q:150
L:1/8
M:4/4
R:hornpipe
K:G
GA|BGBd gdBd|cAaf gedc|BGBd gdBd|AGFE DFAc|
BGBd gdBd|cAaf gedc|BdBG AcAF|G2 GF G2:|
GB|dcBA GBdf|e2 c2 c3d|ecBc Aceg|f2 d2 dedc|
BGDG BGdB|AFDF AFcA|BGBd cAFA|G2 GF G2:|

%%%

